!!!!SEGMENT: pl-kk--kk-i-375_gorczycki-grzegorz-gerwazy-sacris-solemnis.krn
!!!id: 17xx:1974
!!!COM: Gorczycki, Grzegorz Gerwazy
!!!OTL: Sacris solemnis
!!!PDT:
!!!SMS-siglum: PL-Kk
!!!SMS-shelfmark: Kk.I.375
!!!NIFC-rismID: 1001143616
!!!URL-scan: http://repozytorium.nifc.pl/skany/pl-kk-nut--i-375
!!!ONB-nifc:
!!!SMS-variant:
!!!SMS-altvar:
**kern	**text	**text	**text	**text	**kern	**text	**text	**text	**text	**dynam
*part2	*part2	*part2	*part2	*part2	*part1	*part1	*part1	*part1	*part1	*part1
*staff2	*staff2	*staff2	*staff2	*staff2	*staff1	*staff1	*staff1	*staff1	*staff1	*
*I"Baſso	*	*	*	*	*I"Canto.	*	*	*	*	*
*I'B	*	*	*	*	*I'S	*	*	*	*	*
*clefF4	*	*	*	*	*clefC1	*	*	*	*	*
*k[]	*	*	*	*	*k[]	*	*	*	*	*
*M2/1	*	*	*	*	*M2/1	*	*	*	*	*
*met(c|)	*	*	*	*	*met(c|)	*	*	*	*	*
=1-	=1-	=1-	=1-	=1-	=1-	=1-	=1-	=1-	=1-	=1-
00r	.	.	.	.	1d	1 Sa-	3 Post	5 Sic	.	.
.	.	.	.	.	2f/	-cris	a-	Sa-	.	.
.	.	.	.	.	2f/	so-	-gnum	-cri-	.	.
=2-	=2-	=2-	=2-	=2-	=2-	=2-	=2-	=2-	=2-	=2-
.	.	.	.	.	(2g/	-le-	ty-	-fi-	.	.
.	.	.	.	.	1a	.	.	.	.	.
!	!	!	!	!	!LO:TX:t=P:problem:kreska pseudotaktowa	!	!	!	!	!
.	.	.	.	.	2g/)	.	-pi-	-ci-	.	.
=3-	=3-	=3-	=3-	=3-	=3-	=3-	=3-	=3-	=3-	=3-
*	*	*	*	*	*2\right	*	*	*	*	*
00r	.	.	.	.	2a,<\	-mnÿs	-cum,	-um	.	.
.	.	.	.	.	1cc	jun-	ex-	is-	.	.
.	.	.	.	.	1a	-cta	-ple-	-tud	.	.
=4-	=4-	=4-	=4-	=4-	=4-	=4-	=4-	=4-	=4-	=4-
.	.	.	.	.	.	.	.	.	.	.
!	!	!	!	!	!LO:TX:t=P:problem:kreska pseudotaktowa	!	!	!	!	!
.	.	.	.	.	2a\	ſint	-tis	in-	.	.
.	.	.	.	.	2g/	gau-	e-	-sti-	.	.
.	.	.	.	.	2e/	.	.	.	.	.
=5-	=5-	=5-	=5-	=5-	=5-	=5-	=5-	=5-	=5-	=5-
00r	.	.	.	.	4f/	.	.	.	.	.
.	.	.	.	.	4g/	.	.	.	.	.
.	.	.	.	.	4f/	.	.	.	.	.
!	!	!	!	!	!LO:TX:t=P:problem:kreska pseudotaktowa	!	!	!	!	!
.	.	.	.	.	4e/	.	.	.	.	.
.	.	.	.	.	4d/	.	.	.	.	.
.	.	.	.	.	4e/	.	.	.	.	.
.	.	.	.	.	4f/	.	.	.	.	.
.	.	.	.	.	4d/	.	.	.	.	.
=6-	=6-	=6-	=6-	=6-	=6-	=6-	=6-	=6-	=6-	=6-
.	.	.	.	.	2g/	.	.	.	.	.
.	.	.	.	.	2e/	.	.	.	.	.
.	.	.	.	.	2a\	.	.	.	.	.
.	.	.	.	.	2b\	.	.	.	.	.
=7-	=7-	=7-	=7-	=7-	=7-	=7-	=7-	=7-	=7-	=7-
1AA	1. Sa-	3. Post	5. Sic	.	2.cc\	.	.	.	.	.
.	.	.	.	.	4cc\	-di-	-pu-	-tu-	.	.
!	!	!	!	!	!LO:TX:t=P:problem:kreska pseudotaktowa	!	!	!	!	!
2C/	-cris	a-	Sa-	.	1a	-a	-lis	-it	.	.
1C	so-	-gnum	-cri-	.	.	.	.	.	.	.
=8-	=8-	=8-	=8-	=8-	=8-	=8-	=8-	=8-	=8-	=8-
.	.	.	.	.	2r	.	.	.	.	.
1D	-le-	ty-	-fi-	.	2a\	jun-	ex-	is-	.	.
.	.	.	.	.	2dd\	-cta	-ple-	-tud	.	.
!LO:TX:t=P:problem:kreska pseudotaktowa	!	!	!	!	!	!	!	!	!	!
2C/	.	-pi-	-ci-	.	2ee\	ſint	-tis	in-	.	.
!	!	!	!	!	!LO:LB:g=original	!	!	!	!	!
=9-	=9-	=9-	=9-	=9-	=9-	=9-	=9-	=9-	=9-	=9-
2D,</	-mnÿs	-cum,	-um	.	2ff\	gau-	e-	-sti-	.	.
!	!	!	!	!	!LO:TX:t=P:problem:kreska pseudotaktowa	!	!	!	!	!
1F	jun-	ex-	i-	.	2cc\	.	.	.	.	.
.	.	.	.	.	2a\	.	.	.	.	.
*2\right	*	*	*	*	*	*	*	*	*	*
!LO:TX:t=P:problem:kreska pseudotaktowa	!	!	!	!	!	!	!	!	!	!
2E\	-cta	-ple-	-stud	.	2cc\	.	.	.	.	.
=10-	=10-	=10-	=10-	=10-	=10-	=10-	=10-	=10-	=10-	=10-
2D/	Sint	-tis	in-	.	2f/	.	.	.	.	.
2G\	gau-	e-	-sti-	.	1g	.	.	.	.	.
2E\	.	.	.	.	.	.	.	.	.	.
!	!	!	!	!	!LO:TX:t=P:problem:kreska pseudotaktowa	!	!	!	!	!
1A	.	.	.	.	2a\	.	.	.	.	.
=11-	=11-	=11-	=11-	=11-	=11-	=11-	=11-	=11-	=11-	=11-
.	.	.	.	.	1bn	.	.	.	.	.
!LO:TX:t=P:problem:kreska pseudotaktowa	!	!	!	!	!	!	!	!	!	!
2G#X\	.	.	.	.	.	.	.	.	.	.
2A\	.	.	.	.	2cc\	.	.	.	.	.
2D/	.	.	.	.	2dd\	.	.	.	.	.
=12-	=12-	=12-	=12-	=12-	=12-	=12-	=12-	=12-	=12-	=12-
2.E\	.	.	.	.	2.b\	.	.	.	.	.
4E\	-di-	-pu-	-tu-	.	4b\	-di-	-pu-	-tu-	.	.
!LO:TX:t=P:problem:kreska pseudotaktowa	!	!	!	!	!LO:TX:t=P:problem:kreska pseudotaktowa	!	!	!	!	!
1AA	-a	-lis	-it	.	1cc	-a	-lis	-it	.	.
=13-	=13-	=13-	=13-	=13-	=13-	=13-	=13-	=13-	=13-	=13-
2r	.	.	.	.	1ree	.	.	.	.	.
!LO:TX:t=P:problem:kreska pseudotaktowa	!	!	!	!	!	!	!	!	!	!
2A\	et	cor-	cu-	.	.	.	.	.	.	.
2E\	ex	-pus	-jus	.	2r	.	.	.	.	.
!	!	!	!	!	!LO:TX:t=P:problem:kreska pseudotaktowa	!	!	!	!	!
(4E\	prae-	Do-	of-	.	2ee\	et	cor-	cu-	.	.
4F\)	.	.	.	.	.	.	.	.	.	.
=14-	=14-	=14-	=14-	=14-	=14-	=14-	=14-	=14-	=14-	=14-
1Gny	-cor-	-mi-	-fi-	.	2b\	ex	-pus	-jus	.	.
.	.	.	.	.	(4b\	prae-	Do-	of-	.	.
.	.	.	.	.	4cc\)	.	.	.	.	.
!LO:TX:t=P:problem:kreska pseudotaktowa	!	!	!	!	!	!	!	!	!	!
1F	.	.	.	.	(4dd\	-cor-	-mi-	-fi-	.	.
.	.	.	.	.	4a\)	.	.	.	.	.
.	.	.	.	.	1dd	.	-ni-	ci-	.	.
!LO:LB:g=original	!	!	!	!	!	!	!	!	!	!
=15-	=15-	=15-	=15-	=15-	=15-	=15-	=15-	=15-	=15-	=15-
2.E\	.	.	.	.	.	.	.	.	.	.
.	.	.	.	.	2cc#X\	-dÿs	-cum	-um	.	.
4E\	-dÿs	-ni-	-ci-	.	.	.	.	.	.	.
!LO:TX:t=P:problem:kreska pseudotaktowa	!	!	!	!	!LO:TX:t=P:problem:kreska pseudotaktowa	!	!	!	!	!
1D	.	-cum	-um	.	1dd	.	.	.	.	.
.	.	.	.	.	.	.	.	.	.	.
.	.	.	.	.	.	.	.	.	.	.
=16-	=16-	=16-	=16-	=16-	=16-	=16-	=16-	=16-	=16-	=16-
0r	.	.	.	.	1ree	.	.	.	.	.
.	.	.	.	.	.	.	.	.	.	.
.	.	.	.	.	2rcc	.	.	.	.	.
.	.	.	.	.	2a\	ſo-	da-	com-	.	.
=17-	=17-	=17-	=17-	=17-	=17-	=17-	=17-	=17-	=17-	=17-
1r	.	.	.	.	2b\	-nent	-tum	-mit-	.	.
.	.	.	.	.	2b\	prae-	di-	-ti	.	.
!	!	!	!	!	!LO:LB:g=original	!	!	!	!	!
2r	.	.	.	.	2ccny\	-co-	-sci-	vo-	.	.
!LO:TX:t=P:problem:kreska pseudotaktowa	!	!	!	!	!LO:TX:t=P:problem:kreska pseudotaktowa	!	!	!	!	!
2AA/	So-	da-	com-	.	2a\	.	.	.	.	.
=18-	=18-	=18-	=18-	=18-	=18-	=18-	=18-	=18-	=18-	=18-
2C/	-nent	-tum	-mit-	.	4ee\	.	.	.	.	.
.	.	.	.	.	4dd\	.	.	.	.	.
2C/	prae-	di-	-ti	.	4cc\	.	.	.	.	.
.	.	.	.	.	4b\	.	.	.	.	.
2D/	-co-	-sci-	vo-	.	2a\	.	.	.	.	.
!	!	!	!	!	!LO:TX:t=P:problem:kreska pseudotaktowa	!	!	!	!	!
1E	.	.	.	.	2g/	.	.	.	.	.
=19-	=19-	=19-	=19-	=19-	=19-	=19-	=19-	=19-	=19-	=19-
.	.	.	.	.	2.a\	.	.	.	.	.
!LO:TX:t=P:problem:kreska pseudotaktowa	!	!	!	!	!	!	!	!	!	!
2D/	.	.	.	.	.	.	.	.	.	.
.	.	.	.	.	4a\	-ni-	-pu-	-lu-	.	.
1.E	.	.	.	.	2g#X/	-a	-lis	-it	.	.
!	!	!	!	!	!LO:TX:t=P:problem:kreska pseudotaktowa	!	!	!	!	!
.	.	.	.	.	2cc\	prae-	di-	vo-	.	.
=20-	=20-	=20-	=20-	=20-	=20-	=20-	=20-	=20-	=20-	=20-
.	.	.	.	.	2.b\	-co-	-sci-	.	.	.
2E\	-ni-	-pu-	-lu-	.	.	.	.	.	.	.
.	.	.	.	.	4b\	-ni-	-pu-	-lu-	.	.
!LO:TX:t=P:problem:kreska pseudotaktowa	!	!	!	!	!LO:TX:t=P:problem:kreska pseudotaktowa	!	!	!	!	!
1AA;,<	-a	-lis	-it	.	1a;	-a	-lis	-it	.	.
=21-	=21-	=21-	=21-	=21-	=21-	=21-	=21-	=21-	=21-	=21-
1C	re-	Sic	So-	.	0r	.	.	.	.	.
!LO:TX:a:t=P:problem:dwie poprawiane nuty, po nich cztery zamazane	!	!	!	!	!	!	!	!	!	!
!LO:TX:a:t=f	!	!	!	!	!	!	!	!	!	!
2F\	-ce-	to-	-lis	.	.	.	.	.	.	.
!LO:TX:a:t=d	!	!	!	!	!	!	!	!	!	!
2D/	-dant	-tum	pres-	.	.	.	.	.	.	.
=22-	=22-	=22-	=22-	=22-	=22-	=22-	=22-	=22-	=22-	=22-
4E\	ve-	om-	-by-	.	(1gny	re-	ſic	So-	.	.
4F\	.	.	.	.	.	.	.	.	.	.
4G\	.	.	.	.	.	.	.	.	.	.
!LO:TX:t=P:problem:kreska pseudotaktowa	!	!	!	!	!	!	!	!	!	!
4E\	.	.	.	.	.	.	.	.	.	.
4F\	.	.	.	.	1fn)	.	.	.	.	.
4G\	.	.	.	.	.	.	.	.	.	.
4A\	.	.	.	.	.	.	.	.	.	.
4F\	.	.	.	.	.	.	.	.	.	.
=23-	=23-	=23-	=23-	=23-	=23-	=23-	=23-	=23-	=23-	=23-
2c\	.	.	.	.	1g	-ce-	to-	-lis	.	.
2C/	-te-	-ni-	-te-	.	.	.	.	.	.	.
!	!	!	!	!	!LO:TX:t=P:problem:kreska pseudotaktowa	!	!	!	!	!
2F\	-ra	-bus	-ris	.	1a	-dant	-tum	pres-	.	.
!LO:TX:t=P:problem:kreska pseudotaktowa	!	!	!	!	!	!	!	!	!	!
2F\	no-	quod	qui-	.	.	.	.	.	.	.
=24-	=24-	=24-	=24-	=24-	=24-	=24-	=24-	=24-	=24-	=24-
2E\	-va	to-	-bus	.	2cc\	ve-	om-	-by-	.	.
2F\	Sint	-tum	Sic	.	2cc\	-te-	-ni-	-te-	.	.
!	!	!	!	!	!LO:TX:t=P:problem:kreska pseudotaktowa	!	!	!	!	!
2.G\	om-	Sin-	con-	.	1g,<	-ra	-bus	-ris	.	.
4F\	.	.	.	.	.	.	.	.	.	.
!LO:LB:g=original	!	!	!	!	!	!	!	!	!	!
=25-	=25-	=25-	=25-	=25-	=25-	=25-	=25-	=25-	=25-	=25-
4E\	.	.	.	.	1cc	no-	quod	qui-	.	.
4F\	.	.	.	.	.	.	.	.	.	.
4E\	.	.	.	.	.	.	.	.	.	.
4D/	.	.	.	.	.	.	.	.	.	.
4C/	.	.	.	.	1cc	-va	to-	-bus	.	.
4D/	.	.	.	.	.	.	.	.	.	.
4E\	.	.	.	.	.	.	.	.	.	.
!LO:TX:t=P:problem:kreska pseudotaktowa	!	!	!	!	!	!	!	!	!	!
4F\	.	.	.	.	.	.	.	.	.	.
=26-	=26-	=26-	=26-	=26-	=26-	=26-	=26-	=26-	=26-	=26-
!	!	!	!	!	!LO:TX:t=P:problem:kreska pseudotaktowa	!	!	!	!	!
4G\	.	.	.	.	1g	Sint	-tum	Sic	.	.
4D/	.	.	.	.	.	.	.	.	.	.
1G	.	.	.	.	.	.	.	.	.	.
.	.	.	.	.	1a	om-	Sin-	con-	.	.
1F	.	.	.	.	.	.	.	.	.	.
=27-	=27-	=27-	=27-	=27-	=27-	=27-	=27-	=27-	=27-	=27-
.	.	.	.	.	(1g	.	.	.	.	.
!LO:TX:t=P:problem:kreska pseudotaktowa	!	!	!	!	!	!	!	!	!	!
2E\	.	.	.	.	.	.	.	.	.	.
4D\	.	.	.	.	1f)	.	.	.	.	.
4E\	.	.	.	.	.	.	.	.	.	.
4F\	.	.	.	.	.	.	.	.	.	.
4G\	.	.	.	.	.	.	.	.	.	.
!	!	!	!	!	!LO:LB:g=original	!	!	!	!	!
=28-	=28-	=28-	=28-	=28-	=28-	=28-	=28-	=28-	=28-	=28-
2A\	.	.	.	.	2e/	.	.	.	.	.
2AA/	-ni-	-gu-	-gru-	.	2e/	-ni-	-gu-	-gru-	.	.
!LO:TX:t=P:problem:kreska pseudotaktowa	!	!	!	!	!	!	!	!	!	!
1D	-a	-lis	-it	.	2d,</	-a	-lis	-it	.	.
!	!	!	!	!	!LO:TX:t=P:problem:kreska pseudotaktowa	!	!	!	!	!
.	.	.	.	.	[2d/	cor-	e-	ut	.	.
=29-	=29-	=29-	=29-	=29-	=29-	=29-	=29-	=29-	=29-	=29-
0r	.	.	.	.	2d/]	.	.	.	.	.
.	.	.	.	.	1a	.	.	.	.	.
.	.	.	.	.	1cc	.	.	Su-	.	.
=30-	=30-	=30-	=30-	=30-	=30-	=30-	=30-	=30-	=30-	=30-
2r	.	.	.	.	.	.	.	.	.	.
1AA	cor-	e-	ut	.	1a,<	-da	-ius	-mant	.	.
!	!	!	!	!	!LO:TX:t=P:problem:kreska pseudotaktowa	!	!	!	!	!
(1D	.	.	Su-	.	2a\	vo-	e-	Su-	.	.
=31-	=31-	=31-	=31-	=31-	=31-	=31-	=31-	=31-	=31-	=31-
!	!	!	!	!	!LO:TX:t=P:problem:kreska pseudotaktowa	!	!	!	!	!
.	.	.	.	.	1f	-ces	-ius	-mant	.	.
1F)	.	.	.	.	.	.	.	.	.	.
.	.	.	.	.	2rf	.	.	.	.	.
1D,<	-da	-ius	-mant,	.	1f	cor-	e-	ut	.	.
=32-	=32-	=32-	=32-	=32-	=32-	=32-	=32-	=32-	=32-	=32-
.	.	.	.	.	.	.	.	.	.	.
1E	vo-	fa-	et-	.	1g	-da	-ius	Su-	.	.
1F	-ces	-te-	dent	.	1a	vo-	fa-	-mant	.	.
=33-	=33-	=33-	=33-	=33-	=33-	=33-	=33-	=33-	=33-	=33-
.	.	.	.	.	.	.	.	.	.	.
1G	et	-mur	cae-	.	1b	-ces	-te-	et	.	.
!	!	!	!	!	!LO:TX:t=P:problem:kreska pseudotaktowa	!	!	!	!	!
1A	o-	ma-	.	.	2cc#X\	et	-mur	dent	.	.
=34-	=34-	=34-	=34-	=34-	=34-	=34-	=34-	=34-	=34-	=34-
.	.	.	.	.	2dd\	o-	ma-	cae-	.	.
!LO:TX:t=P:problem:kreska pseudotaktowa	!	!	!	!	!	!	!	!	!	!
2G\	.	.	.	.	2b\	.	.	.	.	.
1.A	.	.	.	.	1.a	.	.	.	.	.
=35-	=35-	=35-	=35-	=35-	=35-	=35-	=35-	=35-	=35-	=35-
.	.	.	.	.	.	.	.	.	.	.
2AA/	-pe-	-ni-	-te-	.	2a\	-pe-	-ni-	-te-	.	.
0D;;	-ra	-bus	-ris.	.	0a;;	-ra	-bus	-ris.	.	.
!LO:PB:g=original	!	!	!	!	!LO:PB:g=original	!	!	!	!	!
=36-	=36-	=36-	=36-	=36-	=36-	=36-	=36-	=36-	=36-	=36-
*M3/2	*	*	*	*	*M3/2	*	*	*	*	*
!LO:N:vis=00	!	!	!	!	!	!	!	!	!	!
00.r	2.Noctis,	4.Decit.	6.Panis,	.	2dd\	2. Noc-	4. De-	6. Pa-	.	.
.	.	.	.	.	2dd\	-tis	-dit	-nis	.	.
!	!	!	!	!	!LO:TX:t=P:problem:kreska pseudotaktowa	!	!	!	!	!
.	.	.	.	.	2dd\	re-	fra-	an-	.	.
=37-	=37-	=37-	=37-	=37-	=37-	=37-	=37-	=37-	=37-	=37-
.	.	.	.	.	2.cc#X\	-co-	-gi-	-ge-	.	.
.	.	.	.	.	4b\	-li-	-li-	-li-	.	.
!	!	!	!	!	!LO:TX:t=P:problem:kreska pseudotaktowa	!	!	!	!	!
.	.	.	.	.	2a\	-tur	-bus	-cus	.	.
=38-	=38-	=38-	=38-	=38-	=38-	=38-	=38-	=38-	=38-	=38-
.	.	.	.	.	2g/	cae-	cor-	fit	u-	.
.	.	.	.	.	2e/	-na	-po-	pa-	-na-	.
!	!	!	!	!	!LO:TX:t=P:problem:kreska pseudotaktowa	!	!	!	!	!
.	.	.	.	.	2a\	no-	-ris	-nis	-q(ue)	.
=39-	=39-	=39-	=39-	=39-	=39-	=39-	=39-	=39-	=39-	=39-
.	.	.	.	.	1a	-viſ-	fer-	ho-	po-	.
.	.	.	.	.	2g#X/	-si-	-cu-	-mi-	-sci-	.
=40-	=40-	=40-	=40-	=40-	=40-	=40-	=40-	=40-	=40-	=40-
!LO:TX:t=P:problem:kreska pseudotaktowa	!	!	!	!	!LO:TX:t=P:problem:kreska pseudotaktowa	!	!	!	!	!
1.r	.	.	.	.	1.a	-ma	-lum	-num	-mus	.
=41-	=41-	=41-	=41-	=41-	=41-	=41-	=41-	=41-	=41-	=41-
2F\	quâ	de-	dat	.	2a\	qua	de-	dat	Sic	.
2F\	Chris-	-dit	pa-	.	2a\	Chris-	-dit	pa-	nos	.
2F\	-tu(s)	et	-nis	.	2a\	-tus	et	-nis	tu	.
=42-	=42-	=42-	=42-	=42-	=42-	=42-	=42-	=42-	=42-	=42-
2.C/	cre-	tris-	cae-	.	2.gny/	cre-	tris-	cae-	vi-	.
4C/	-di-	-ti-	-li-	.	4g/	-di-	-ti-	-li-	-si-	.
!LO:TX:t=P:problem:kreska pseudotaktowa	!	!	!	!	!LO:TX:t=P:problem:kreska pseudotaktowa	!	!	!	!	!
2C/	-tur	-bus	-cus	.	2g/	-tur	-bus	-cus	-ta	.
=43-	=43-	=43-	=43-	=43-	=43-	=43-	=43-	=43-	=43-	=43-
2AA/	ag-	San-	fi-	Si-	2cc\	ag-	San-	fi-	Si-	.
2BB-X/	-num	-gui-	-gu-	-cut	2b-X\	-num	-gvi-	-gu-	-cut	.
2FF/	et	-nis	-ris	te	2a\	et	-nis	-ris	te	.
=44-	=44-	=44-	=44-	=44-	=44-	=44-	=44-	=44-	=44-	=44-
1C	a-	pro-	ter-	co-	1g	a-	pro-	ter-	co-	.
2C/	-zy-	-cu-	-mi-	-li-	2g/	-zy-	-cu-	-mi-	-li-	.
=45-	=45-	=45-	=45-	=45-	=45-	=45-	=45-	=45-	=45-	=45-
!LO:TX:t=P:problem:kreska pseudotaktowa	!	!	!	!	!LO:TX:t=P:problem:kreska pseudotaktowa	!	!	!	!	!
1.FF	-ma	-lum	-num.	-mus	1.a	-ma	-lum	-num.	-mus	.
!	!	!	!	!	!LO:LB:g=original	!	!	!	!	!
=46-	=46-	=46-	=46-	=46-	=46-	=46-	=46-	=46-	=46-	=46-
2F\	de-	di-	ô	per	2a\	de-	di-	ô	per	.
2G\	-diſ-	-cens	res	tu-	2g/	-diſ-	-cens,	res	tu-	.
2D/	-se	ac-	mi-	-os	2f/	-se	ac-	mi-	-as	.
=47-	=47-	=47-	=47-	=47-	=47-	=47-	=47-	=47-	=47-	=47-
2.A\	fra-	-ci-	-ra-	Se-	2.a\	fra-	-ci-	-ra-	Se-	.
4A\	-ti-	-pi-	-bi-	-mi-	4a\	-ti-	-pi-	-bi-	-mi-	.
!LO:TX:t=P:problem:kreska pseudotaktowa	!	!	!	!	!LO:TX:t=P:problem:kreska pseudotaktowa	!	!	!	!	!
2A\	-bus	-te	-lis	-tas	2a\	-bus	-te	-lis	-tas	.
=48-	=48-	=48-	=48-	=48-	=48-	=48-	=48-	=48-	=48-	=48-
2E\	jux-	quod	man-	duc	2cc\	jux-	quod	man-	duc	.
2F\	-ta	tra-	-du-	nos	2a\	-ta	tra-	-du-	nos	.
2D/	le-	-do	-cat	quo	2a\	le-	-do	-cat	quo	.
=49-	=49-	=49-	=49-	=49-	=49-	=49-	=49-	=49-	=49-	=49-
1E	-gi-	vas-	D(o-	ten-	1ee	-gi-	vas-	D(o-	ten-	.
2E\	-ti-	-cu-	mi)-	-di-	2ee\	-ti-	-cu-	mi)-	-di-	.
=50-	=50-	=50-	=50-	=50-	=50-	=50-	=50-	=50-	=50-	=50-
!LO:TX:t=P:problem:kreska pseudotaktowa	!	!	!	!	!LO:TX:t=P:problem:kreska pseudotaktowa	!	!	!	!	!
1AA	-ma	-lum	-num	-m(us)	1.ee	-ma	-lum	-num	-mus	.
!LO:LB:g=original	!	!	!	!	!	!	!	!	!	!
!LO:TX:t=P:problem:kreska pseudotaktowa	!	!	!	!	!	!	!	!	!	!
2r	.	.	.	.	.	.	.	.	.	.
=51-	=51-	=51-	=51-	=51-	=51-	=51-	=51-	=51-	=51-	=51-
!	!	!	!	!	!LO:N:vis=00	!	!	!	!	!
2D/	pris-	om-	pau-	ad	00.r	.	.	.	.	.
2E\	-cis	-nes	.	lu-	.	.	.	.	.	.
2F\	in-	ex	.	-cem	.	.	.	.	.	.
=52-	=52-	=52-	=52-	=52-	=52-	=52-	=52-	=52-	=52-	=52-
2G\	-dul-	e-	.	ad	.	.	.	.	.	.
2G\	-ta	-o	-per	lu-	.	.	.	.	.	.
!LO:TX:t=P:problem:kreska pseudotaktowa	!	!	!	!	!	!	!	!	!	!
2F\	in-	ex	Ser-	-cem	.	.	.	.	.	.
=53-	=53-	=53-	=53-	=53-	=53-	=53-	=53-	=53-	=53-	=53-
1E	-dul-	e-	-vus	quam	.	.	.	.	.	.
4F\	-ta	-o	et	in-	.	.	.	.	.	.
!LO:TX:t=P:problem:kreska pseudotaktowa	!	!	!	!	!	!	!	!	!	!
4G\	.	.	.	.	.	.	.	.	.	.
=54-	=54-	=54-	=54-	=54-	=54-	=54-	=54-	=54-	=54-	=54-
!LO:TX:a:t=P:problem:za długa pauza w S	!	!	!	!	!	!	!	!	!	!
1.ryy	.	.	.	.	.	.	.	.	.	.
=55-	=55-	=55-	=55-	=55-	=55-	=55-	=55-	=55-	=55-	=55-
2.A\	pa-	bi-	hu-	-ha-	2a\	priſ-	om-	pau-	ad	.
.	.	.	.	.	2b\	-cis	-nes	.	lu-	.
4A\	-tri-	-bi-	-mi-	-bi-	.	.	.	.	.	.
!LO:TX:t=P:problem:kreska pseudotaktowa	!	!	!	!	!LO:TX:t=P:problem:kreska pseudotaktowa	!	!	!	!	!
2A\	-bus	-te	-lis	-tas	2cc\	in-	ex	.	-cem	.
=56-	=56-	=56-	=56-	=56-	=56-	=56-	=56-	=56-	=56-	=56-
2F\	pris-	om-	pau-	ad	2dd\	-dul-	e-	.	ad	.
2F\	-cis	-nes	-per	lu-	2dd\	-ta	-o	-per	lu-	.
2F\	in-	ex	ser-	-cem	2cc\	in-	ex	ser-	-cem	.
=57-	=57-	=57-	=57-	=57-	=57-	=57-	=57-	=57-	=57-	=57-
1G	-dul-	e-	-v(us)	quam	1bn	-dul-	e-	-v(us)	qvam	.
2D/	-ta	-o	et	in-	2a\	-ta	-o	et	in-	.
=58-	=58-	=58-	=58-	=58-	=58-	=58-	=58-	=58-	=58-	=58-
1A	pa-	bi-	hu-	-ha-	1a	pa-	bi-	hu-	-ha-	.
2AA/	-tri-	-bi-	-mi-	-bi-	2a\	-tri-	-bi-	-mi-	-bi-	.
=59-	=59-	=59-	=59-	=59-	=59-	=59-	=59-	=59-	=59-	=59-
1.D;;	-bus.	-te	-lis	-tas.	1.a;;	-bus.	-te	-lis	-tas.Amen	.
!LO:LB:g=original	!	!	!	!	!LO:LB:g=original	!	!	!	!	!
=60||-	=60||-	=60||-	=60||-	=60||-	=60||-	=60||-	=60||-	=60||-	=60||-	=60||-
*M3/2	*	*	*	*	*M3/2	*	*	*	*	*
!	!	!	!	!	!	!	!	!	!	!LO:DY:t=Forte.
2D/	7. Te	.	.	.	2a\	7. Te	.	.	.	f
2C#X/	tri-	.	.	.	2a\	tri-	.	.	.	.
2D/	-na	.	.	.	2a\	-na	.	.	.	.
=61-	=61-	=61-	=61-	=61-	=61-	=61-	=61-	=61-	=61-	=61-
2.AA/	De-	.	.	.	2.a\	De-	.	.	.	.
4AA/	-i-	.	.	.	4a\	-i-	.	.	.	.
!LO:TX:t=P:problem:kreska pseudotaktowa	!	!	!	!	!LO:TX:t=P:problem:kreska pseudotaktowa	!	!	!	!	!
2AA/	-tas	.	.	.	2a\	-tas	.	.	.	.
=62-	=62-	=62-	=62-	=62-	=62-	=62-	=62-	=62-	=62-	=62-
2D\	u-	.	.	.	2a\	u-	.	.	.	.
2E\	-na-	.	.	.	2cc\	-na-	.	.	.	.
!	!	!	!	!	!LO:TX:t=P:problem:kreska pseudotaktowa	!	!	!	!	!
2F\	-que	.	.	.	2dd\	-q(ue)	.	.	.	.
=63-	=63-	=63-	=63-	=63-	=63-	=63-	=63-	=63-	=63-	=63-
1E	po-	.	.	.	2cc\	po-	.	.	.	.
.	.	.	.	.	2.b\	.	.	.	.	.
2E\	-sci-	.	.	.	.	.	.	.	.	.
.	.	.	.	.	4b\	-sci-	.	.	.	.
=64-	=64-	=64-	=64-	=64-	=64-	=64-	=64-	=64-	=64-	=64-
!LO:TX:t=P:problem:kreska pseudotaktowa	!	!	!	!	!LO:TX:t=P:problem:kreska pseudotaktowa	!	!	!	!	!
1.AA	-mus	.	.	.	1.cc#X	-mus	.	.	.	.
=65-	=65-	=65-	=65-	=65-	=65-	=65-	=65-	=65-	=65-	=65-
2F\	Sic	.	.	.	2a\	Sic	.	.	.	.
2E\	nos	.	.	.	2g\	nos	.	.	.	.
2F\	tu	.	.	.	2a\	tu	.	.	.	.
=66-	=66-	=66-	=66-	=66-	=66-	=66-	=66-	=66-	=66-	=66-
2.Cny/	vi-	.	.	.	2.g/	vi-	.	.	.	.
4C/	-si-	.	.	.	4g/	-si-	.	.	.	.
!LO:TX:t=P:problem:kreska pseudotaktowa	!	!	!	!	!LO:TX:t=P:problem:kreska pseudotaktowa	!	!	!	!	!
2C/	-ta	.	.	.	2g/	-ta	.	.	.	.
=67-	=67-	=67-	=67-	=67-	=67-	=67-	=67-	=67-	=67-	=67-
2F\	Si-	.	.	.	2cc\	Si-	.	.	.	.
2G\	-cut	.	.	.	2b\	-cut	.	.	.	.
2A\	te	.	.	.	2a\	te	.	.	.	.
=68-	=68-	=68-	=68-	=68-	=68-	=68-	=68-	=68-	=68-	=68-
1G	co-	.	.	.	1cc	co-	.	.	.	.
2G\	-li-	.	.	.	2b\	-li-	.	.	.	.
=69-	=69-	=69-	=69-	=69-	=69-	=69-	=69-	=69-	=69-	=69-
!LO:TX:t=P:problem:kreska pseudotaktowa	!	!	!	!	!LO:TX:t=P:problem:kreska pseudotaktowa	!	!	!	!	!
1.C	-mus	.	.	.	1.cc	-mus	.	.	.	.
!	!	!	!	!	!LO:LB:g=original	!	!	!	!	!
=70-	=70-	=70-	=70-	=70-	=70-	=70-	=70-	=70-	=70-	=70-
2AA/	per	.	.	.	2cc#X\	per	.	.	.	.
2AA/	tu-	.	.	.	2cc#\	tu-	.	.	.	.
2AA/	-as	.	.	.	2cc#\	-os	.	.	.	.
=71-	=71-	=71-	=71-	=71-	=71-	=71-	=71-	=71-	=71-	=71-
2.D/	Se-	.	.	.	2.dd\	Se-	.	.	.	.
4D/	-mi-	.	.	.	4dd\	-mi-	.	.	.	.
!	!	!	!	!	!LO:TX:t=P:problem:kreska pseudotaktowa	!	!	!	!	!
2D/	-tas	.	.	.	2dd\	-tas	.	.	.	.
!LO:LB:g=original	!	!	!	!	!	!	!	!	!	!
=72-	=72-	=72-	=72-	=72-	=72-	=72-	=72-	=72-	=72-	=72-
2C#X/	duc	.	.	.	2ee\	duc	.	.	.	.
2D/	nos	.	.	.	2dd\	nos	.	.	.	.
2Cn/	quo	.	.	.	2a\	quo	.	.	.	.
=73-	=73-	=73-	=73-	=73-	=73-	=73-	=73-	=73-	=73-	=73-
1BB-X	ten-	.	.	.	1dd	ten-	.	.	.	.
2BB-/	-di-	.	.	.	2dd\	-di-	.	.	.	.
=74-	=74-	=74-	=74-	=74-	=74-	=74-	=74-	=74-	=74-	=74-
!LO:TX:t=P:problem:kreska pseudotaktowa	!	!	!	!	!LO:TX:t=P:problem:kreska pseudotaktowa	!	!	!	!	!
1.AA	-m(us)	.	.	.	1.cc#X	-mus	.	.	.	.
=75-	=75-	=75-	=75-	=75-	=75-	=75-	=75-	=75-	=75-	=75-
2F\	ad	.	.	.	2a\	ad	.	.	.	.
2F\	lu-	.	.	.	2a\	lu-	.	.	.	.
2D\	-cem	.	.	.	2a\	-cem	.	.	.	.
=76-	=76-	=76-	=76-	=76-	=76-	=76-	=76-	=76-	=76-	=76-
1G	quam	.	.	.	(2b\	quam	.	.	.	.
.	.	.	.	.	2cc#X\)	.	.	.	.	.
2F\	in-	.	.	.	2dd\	in-	.	.	.	.
=77-	=77-	=77-	=77-	=77-	=77-	=77-	=77-	=77-	=77-	=77-
1E	-ha-	.	.	.	1dd	-ha-	.	.	.	.
2E\	-bi-	.	.	.	2cc#X\	-bi-	.	.	.	.
=78-	=78-	=78-	=78-	=78-	=78-	=78-	=78-	=78-	=78-	=78-
!LO:TX:t=P:problem:kreska pseudotaktowa	!	!	!	!	!LO:TX:t=P:problem:kreska pseudotaktowa	!	!	!	!	!
1.D	-tas	.	.	.	1.dd	-tas	.	.	.	.
=79-	=79-	=79-	=79-	=79-	=79-	=79-	=79-	=79-	=79-	=79-
2BB-X/	ad	.	.	.	2dd\	ad	.	.	.	.
2BB-/	lu-	.	.	.	2dd\	lu-	.	.	.	.
2GG/	-cem	.	.	.	2b-X\	-cem	.	.	.	.
=80-	=80-	=80-	=80-	=80-	=80-	=80-	=80-	=80-	=80-	=80-
1C	quam	.	.	.	(2g\	quam	.	.	.	.
.	.	.	.	.	2a\)	.	.	.	.	.
2BB-X/	in-	.	.	.	2b-X\	in-	.	.	.	.
=81-	=81-	=81-	=81-	=81-	=81-	=81-	=81-	=81-	=81-	=81-
1AA	-ha-	.	.	.	2dd\	-ha-	.	.	.	.
.	.	.	.	.	2.a\	.	.	.	.	.
2AA/	-bi-	.	.	.	.	.	.	.	.	.
.	.	.	.	.	4a\	-bi-	.	.	.	.
=82-	=82-	=82-	=82-	=82-	=82-	=82-	=82-	=82-	=82-	=82-
!	!	!	!	!	!LO:TX:a:t=P:problem:brak końcowej kreski taktowej	!	!	!	!	!
1.D;;	-tas.	.	.	.	1.a;;	-tas.	.	.	.	.
=-	=-	=-	=-	=-	=-	=-	=-	=-	=-	=-
*-	*-	*-	*-	*-	*-	*-	*-	*-	*-	*-
!!!system-decoration: [s1,s2]
!!!RDF**kern: < = below
!!!ENC: Tomasz Grochalski
!!!END: 2021-02-09
!!!ENC: Marta Lawrence
!!!END: 2021-02-25
